symbolic/64x64/apps/pdfchain.svg

<svg xmlns="http://www.w3.org/2000/svg" width="64" height="64" version="1">
 <rect style="opacity:0.2" width="40" height="40" x="-45" y="-44" rx="5.714" ry="5.714" transform="matrix(0,-1,-1,0,0,0)"/>
 <rect style="fill:#2e72be" width="40" height="40" x="-44" y="-44" rx="5.714" ry="5.714" transform="matrix(0,-1,-1,0,0,0)"/>
 <rect style="opacity:0.2" width="40" height="40" x="-53" y="-52" rx="5.714" ry="5.714" transform="matrix(0,-1,-1,0,0,0)"/>
 <rect style="fill:#459df7" width="40" height="40" x="-52" y="-52" rx="5.714" ry="5.714" transform="matrix(0,-1,-1,0,0,0)"/>
 <rect style="opacity:0.2" width="40" height="40" x="-61" y="-60" rx="5.714" ry="5.714" transform="matrix(0,-1,-1,0,0,0)"/>
 <rect style="fill:#90c2fa" width="40" height="40" x="-60" y="-60" rx="5.714" ry="5.714" transform="matrix(0,-1,-1,0,0,0)"/>
 <path style="fill:#f34e51" d="m 39.004174,34.001564 a 13.660917,8.8537966 38.859039 0 0 -6.31175,3.473216 13.660917,8.8537966 38.859039 0 0 7.289484,15.547116 13.660917,8.8537966 38.859039 0 0 15.325668,-0.494128 13.660917,8.8537966 38.859039 0 0 -7.289484,-15.547116 13.660917,8.8537966 38.859039 0 0 -9.013918,-2.979088 z"/>
 <path style="opacity:0.2" d="m 41.484414,39.003823 a 8.6019726,6.2458972 32.313125 0 1 3.718692,0.6563 8.6019726,6.2458972 32.313125 0 1 6.706144,9.304388 8.6019726,6.2458972 32.313125 0 1 -9.112356,3.377204 8.6019726,6.2458972 32.313125 0 1 -6.706144,-9.304392 8.6019726,6.2458972 32.313125 0 1 5.393664,-4.0335 z"/>
 <path style="fill:#ffffff" d="m 41.484414,38.003824 a 8.6019726,6.2458972 32.313125 0 1 3.718692,0.6563 8.6019726,6.2458972 32.313125 0 1 6.706144,9.304388 8.6019726,6.2458972 32.313125 0 1 -9.112356,3.377204 8.6019726,6.2458972 32.313125 0 1 -6.706144,-9.304392 8.6019726,6.2458972 32.313125 0 1 5.393664,-4.0335 z"/>
 <path style="opacity:0.2;fill:none;stroke:#000000;stroke-width:4;stroke-linecap:round;stroke-linejoin:round" d="m 28,32.981889 11,9"/>
 <path style="fill:none;stroke:#f34e51;stroke-width:4;stroke-linecap:round;stroke-linejoin:round" d="m 28,32 11,9"/>
 <path style="opacity:0.1;fill:#ffffff" d="M 9.7148438 4 C 6.5491295 4 4 6.5491295 4 9.7148438 L 4 10.714844 C 4 7.5491294 6.5491295 5 9.7148438 5 L 38.285156 5 C 41.45087 5 44 7.5491293 44 10.714844 L 44 9.7148438 C 44 6.5491295 41.45087 4 38.285156 4 L 9.7148438 4 z"/>
 <path style="opacity:0.1;fill:#ffffff" d="M 17.714844 12 C 14.54913 12 12 14.54913 12 17.714844 L 12 18.714844 C 12 15.54913 14.54913 13 17.714844 13 L 46.285156 13 C 49.45087 13 52 15.54913 52 18.714844 L 52 17.714844 C 52 14.54913 49.45087 12 46.285156 12 L 17.714844 12 z"/>
 <path style="opacity:0.1;fill:#ffffff" d="M 25.714844 20 C 22.54913 20 20 22.54913 20 25.714844 L 20 26.714844 C 20 23.54913 22.54913 21 25.714844 21 L 54.285156 21 C 57.45087 21 60 23.54913 60 26.714844 L 60 25.714844 C 60 22.54913 57.45087 20 54.285156 20 L 25.714844 20 z"/>
</svg>

<svg xmlns="http://www.w3.org/2000/svg" width="64" height="64" version="1"><rect style="opacity:.2" width="40" height="40" x="-45" y="-44" rx="5.714" ry="5.714" transform="matrix(0 -1 -1 0 0 0)"/><rect style="fill:#2e72be" width="40" height="40" x="-44" y="-44" rx="5.714" ry="5.714" transform="matrix(0 -1 -1 0 0 0)"/><rect style="opacity:.2" width="40" height="40" x="-53" y="-52" rx="5.714" ry="5.714" transform="matrix(0 -1 -1 0 0 0)"/><rect style="fill:#459df7" width="40" height="40" x="-52" y="-52" rx="5.714" ry="5.714" transform="matrix(0 -1 -1 0 0 0)"/><rect style="opacity:.2" width="40" height="40" x="-61" y="-60" rx="5.714" ry="5.714" transform="matrix(0 -1 -1 0 0 0)"/><rect style="fill:#90c2fa" width="40" height="40" x="-60" y="-60" rx="5.714" ry="5.714" transform="matrix(0 -1 -1 0 0 0)"/><path style="fill:#f34e51" d="M39.004 34.002a13.66 8.854 38.859 0 0-6.312 3.473 13.66 8.854 38.859 0 0 7.29 15.547 13.66 8.854 38.859 0 0 15.326-.494 13.66 8.854 38.859 0 0-7.29-15.547A13.66 8.854 38.859 0 0 39.004 34z"/><path style="opacity:.2" d="M41.484 39.004a8.602 6.246 32.313 0 1 3.72.656 8.602 6.246 32.313 0 1 6.705 9.305 8.602 6.246 32.313 0 1-9.112 3.377 8.602 6.246 32.313 0 1-6.706-9.305 8.602 6.246 32.313 0 1 5.393-4.033z"/><path style="fill:#fff" d="M41.484 38.004a8.602 6.246 32.313 0 1 3.72.656 8.602 6.246 32.313 0 1 6.705 9.305 8.602 6.246 32.313 0 1-9.112 3.377 8.602 6.246 32.313 0 1-6.706-9.305 8.602 6.246 32.313 0 1 5.393-4.033z"/><path style="opacity:.2;fill:none;stroke:#000;stroke-width:4;stroke-linecap:round;stroke-linejoin:round" d="m28 32.982 11 9"/><path style="fill:none;stroke:#f34e51;stroke-width:4;stroke-linecap:round;stroke-linejoin:round" d="m28 32 11 9"/><path style="opacity:.1;fill:#fff" d="M9.715 4A5.703 5.703 0 0 0 4 9.715v1A5.703 5.703 0 0 1 9.715 5h28.57A5.703 5.703 0 0 1 44 10.715v-1A5.703 5.703 0 0 0 38.285 4H9.715zM17.715 12A5.703 5.703 0 0 0 12 17.715v1A5.703 5.703 0 0 1 17.715 13h28.57A5.703 5.703 0 0 1 52 18.715v-1A5.703 5.703 0 0 0 46.285 12h-28.57zM25.715 20A5.703 5.703 0 0 0 20 25.715v1A5.703 5.703 0 0 1 25.715 21h28.57A5.703 5.703 0 0 1 60 26.715v-1A5.703 5.703 0 0 0 54.285 20h-28.57z"/></svg>
